X: 1550
T: the Women's Rock
T: carraig na m-ban.
R: reel
B: O'Neill's 1850 "Music of Ireland" #1550
O: Tobin
Z: transcribed by John B. Walsh, walsh@math.ubc.ca 8/23/96
M: C|
L: 1/8
K: G
D |:\
GBdg egdB | GBdg (3(efg) d \
[1 g | eAcA eAcA | cdef gedB :|\
[2 B | cdef gedc | BGAF G2z2 |]
|: dg (3(gfg) bg (3(gfg) | dgfg \
[1 (3(efg) (df) | eAcA eAcA | cdef gedB :|\
[2 e2(dB) | cdef gedc | BGAF z2 |]
